fs/cloud_arrow_down_24_filled.svg

<svg viewBox="0 0 24 24" fill="none" xmlns="http://www.w3.org/2000/svg" height="1em" width="1em">
  <path d="M6.08664 7.75C6.56096 5.04276 8.92458 3 11.75 3C14.5754 3 16.939 5.04276 17.4134 7.75L17.5 7.75C19.7091 7.75 21.5 9.54086 21.5 11.75C21.5 11.9371 21.4872 12.1212 21.4623 12.3015C20.27 10.8937 18.4894 10 16.5 10C13.1638 10 10.4147 12.5134 10.0428 15.75H6C3.79086 15.75 2 13.9591 2 11.75C2 9.54086 3.79086 7.75 6.00002 7.75L6.08664 7.75ZM22 16.5C22 13.4624 19.5376 11 16.5 11C13.4624 11 11 13.4624 11 16.5C11 19.5376 13.4624 22 16.5 22C19.5376 22 22 19.5376 22 16.5ZM16 13.5C16 13.2239 16.2239 13 16.5 13C16.7761 13 17 13.2239 17 13.5V18.2929L18.6464 16.6464C18.8417 16.4512 19.1583 16.4512 19.3536 16.6464C19.5488 16.8417 19.5488 17.1583 19.3536 17.3536L16.8536 19.8536C16.6583 20.0488 16.3417 20.0488 16.1464 19.8536L13.6464 17.3536C13.4512 17.1583 13.4512 16.8417 13.6464 16.6464C13.8417 16.4512 14.1583 16.4512 14.3536 16.6464L16 18.2929V13.5Z" fill="#212121"/>
</svg>

<svg viewBox="0 0 24 24" fill="none" xmlns="http://www.w3.org/2000/svg" height="1em" width="1em">
  <path d="M6.087 7.75a5.752 5.752 0 0 1 11.326 0h.087a4 4 0 0 1 3.962 4.552 6.501 6.501 0 0 0-11.42 3.448H6a4 4 0 0 1 0-8h.087ZM22 16.5a5.5 5.5 0 1 0-11 0 5.5 5.5 0 0 0 11 0Zm-6-3a.5.5 0 0 1 1 0v4.793l1.646-1.647a.5.5 0 0 1 .708.708l-2.5 2.5a.5.5 0 0 1-.708 0l-2.5-2.5a.5.5 0 0 1 .708-.708L16 18.293V13.5Z" fill="#212121"/>
</svg>
